assets/img/icon-1.svg

<svg fill="none" height="70" viewBox="0 0 55 70" width="55" xmlns="http://www.w3.org/2000/svg"><g fill="#fff"><path d="m43.4944 61.3984h-8.2346c-.7306-4.5021-4.6761-7.9212-9.5473-8.1495l-17.35558-17.3556c.53934-.7267.8591-1.6259.8591-2.5983 0-.9322-.29448-1.7962-.7938-2.5064l14.55438-14.5544c-.5568 4.5563.9703 9.2414 4.3279 12.5987.2393.2393.553.359.8666.359s.6275-.1197.8668-.3591l4.9588-4.9587c.0007.0008.0014.0016.002.0023 1.4188 1.419 3.3052 2.2004 5.3119 2.2004 2.0065 0 3.8929-.7814 5.3119-2.2002 1.4188-1.4189 2.2001-3.3053 2.2001-5.3118 0-2.0066-.7815-3.8931-2.2005-5.3119-.0007-.0007-.0015-.0014-.0022-.0021l4.1506-4.15057c.4787-.47882.4787-1.25482 0-1.7336-2.8662-2.86602-6.6772-4.44456-10.7309-4.44456-1.9339 0-3.8755.3764-5.6662 1.09372l-2.8464-2.8463c-.7542-.754129-1.7571-1.16949-2.8237-1.16949-1.0665 0-2.0695.415361-2.8239 1.16965l-2.7723 2.77246c-1.5567 1.55698-1.5567 4.09022 0 5.64737l2.5235 2.52352-17.1364 17.1365c-.50872-.208-1.06448-.3234-1.64693-.3234-2.40891 0-4.368754 1.9599-4.368754 4.3688 0 2.4091 1.959844 4.369 4.368754 4.369.53969 0 1.05664-.099 1.53425-.2789l16.17518 16.1753c-3.864.9657-6.8104 4.0094-7.4316 7.8381h-8.2347c-.677 0-1.22574.5488-1.22574 1.2258v6.1501c0 .677.54874 1.2257 1.22574 1.2257h36.604c.677 0 1.2257-.5487 1.2257-1.2257v-6.1501c0-.677-.5487-1.2258-1.2257-1.2258zm-.6055-46.4119c.9557.9558 1.4822 2.2265 1.4822 3.5783 0 1.3517-.5264 2.6224-1.4822 3.5782-.9558.9559-2.2265 1.4822-3.5783 1.4822-1.3517 0-2.6225-.5263-3.5782-1.482-.0009-.0009-.0017-.0016-.0025-.0023l7.1568-7.1568c.0008.0007.0015.0017.0022.0024zm-20.0482-7.13047c-.6011-.60127-.6011-1.57941 0-2.18063l2.7721-2.7723c.2912-.29123.6786-.45158 1.0905-.45158s.7993.16039 1.0903.45158l3.4006 3.40041c.0118.01262.0234.02497.0343.03606.3655.36527.9207.4624 1.3888.24235 1.6801-.79054 3.5551-1.20829 5.4223-1.20829 2.9869 0 5.8166 1.02207 8.0898 2.9007l-17.9164 17.91627c-3.0955-3.762-3.7959-9.0429-1.6934-13.5109.2201-.4677.1231-1.0231-.2423-1.3887-.0111-.0112-.0234-.0228-.0359-.0344zm-19.91075 25.43897c0-1.0572.86012-1.9173 1.91728-1.9173 1.05715 0 1.91727.8601 1.91727 1.9173 0 1.0573-.86012 1.9174-1.91727 1.9174-1.05716 0-1.91728-.8601-1.91728-1.9174zm22.26235 22.3931c3.738 0 6.8384 2.4229 7.5743 5.7104h-15.1483c.7356-3.2876 3.836-5.7104 7.574-5.7104zm17.0763 11.8604h-34.15246v-3.6986h8.11546 17.9216 8.1154z"/><path d="m48.2506 26.0791c-.4785-.4785-1.2546-.4786-1.7335.0002-.4786.4786-.4786 1.2548.0002 1.7334l2.2225 2.2223c.2393.2393.553.359.8666.359.3137 0 .6274-.1198.8668-.3592.4786-.4786.4786-1.2548-.0002-1.7334z"/><path d="m40.7144 28.8838c-.6769 0-1.2258.5487-1.2258 1.2256l-.0003 3.1433c0 .677.5486 1.2259 1.2256 1.2259h.0002c.6768 0 1.2257-.5487 1.2257-1.2256l.0004-3.1433c0-.677-.5486-1.2259-1.2256-1.2259z"/><path d="m53.6908 19.0506-3.1431-.0003h-.0002c-.6769 0-1.2257.5488-1.2257 1.2256 0 .677.5485 1.226 1.2256 1.226l3.1432.0003h.0001c.6769 0 1.2258-.5487 1.2258-1.2256-.0001-.677-.5487-1.226-1.2257-1.226z"/></g></svg>

<svg width="55" height="70" viewBox="0 0 55 70" fill="none" xmlns="http://www.w3.org/2000/svg">
<path d="M43.4944 61.3984H35.2598C34.5292 56.8963 30.5837 53.4772 25.7125 53.2489L8.35692 35.8933C8.89626 35.1666 9.21602 34.2674 9.21602 33.295C9.21602 32.3628 8.92154 31.4988 8.42222 30.7886L22.9766 16.2342C22.4198 20.7905 23.9469 25.4756 27.3045 28.8329C27.5438 29.0722 27.8575 29.1919 28.1711 29.1919C28.4847 29.1919 28.7986 29.0722 29.0379 28.8328L33.9967 23.8741C33.9974 23.8749 33.9981 23.8757 33.9987 23.8764C35.4175 25.2954 37.3039 26.0768 39.3106 26.0768C41.3171 26.0768 43.2035 25.2954 44.6225 23.8766C46.0413 22.4577 46.8226 20.5713 46.8226 18.5648C46.8226 16.5582 46.0411 14.6717 44.6221 13.2529C44.6214 13.2522 44.6206 13.2515 44.6199 13.2508L48.7705 9.10023C49.2492 8.62141 49.2492 7.84541 48.7705 7.36663C45.9043 4.50061 42.0933 2.92207 38.0396 2.92207C36.1057 2.92207 34.1641 3.29847 32.3734 4.01579L29.527 1.16949C28.7728 0.415361 27.7699 0 26.7033 0C25.6368 0 24.6338 0.415361 23.8794 1.16965L21.1071 3.94211C19.5504 5.49909 19.5504 8.03233 21.1071 9.58948L23.6306 12.113L6.4942 29.2495C5.98548 29.0415 5.42972 28.9261 4.84727 28.9261C2.43836 28.9261 0.478516 30.886 0.478516 33.2949C0.478516 35.704 2.43836 37.6639 4.84727 37.6639C5.38696 37.6639 5.90391 37.5649 6.38152 37.385L22.5567 53.5603C18.6927 54.526 15.7463 57.5697 15.1251 61.3984H6.8904C6.2134 61.3984 5.66466 61.9472 5.66466 62.6242V68.7743C5.66466 69.4513 6.2134 70 6.8904 70H43.4944C44.1714 70 44.7201 69.4513 44.7201 68.7743V62.6242C44.7201 61.9472 44.1714 61.3984 43.4944 61.3984ZM42.8889 14.9865C43.8446 15.9423 44.3711 17.213 44.3711 18.5648C44.3711 19.9165 43.8447 21.1872 42.8889 22.143C41.9331 23.0989 40.6624 23.6252 39.3106 23.6252C37.9589 23.6252 36.6881 23.0989 35.7324 22.1432C35.7315 22.1423 35.7307 22.1416 35.7299 22.1409L42.8867 14.9841C42.8875 14.9848 42.8882 14.9858 42.8889 14.9865ZM22.8407 7.85603C22.2396 7.25476 22.2396 6.27662 22.8407 5.6754L25.6128 2.9031C25.904 2.61187 26.2914 2.45152 26.7033 2.45152C27.1152 2.45152 27.5026 2.61191 27.7936 2.9031L31.1942 6.30351C31.206 6.31613 31.2176 6.32848 31.2285 6.33957C31.594 6.70484 32.1492 6.80197 32.6173 6.58192C34.2974 5.79138 36.1724 5.37363 38.0396 5.37363C41.0265 5.37363 43.8562 6.3957 46.1294 8.27433L28.213 26.1906C25.1175 22.4286 24.4171 17.1477 26.5196 12.6797C26.7397 12.212 26.6427 11.6566 26.2773 11.291C26.2662 11.2798 26.2539 11.2682 26.2414 11.2566L22.8407 7.85603ZM2.92995 33.295C2.92995 32.2378 3.79007 31.3777 4.84723 31.3777C5.90438 31.3777 6.7645 32.2378 6.7645 33.295C6.7645 34.3523 5.90438 35.2124 4.84723 35.2124C3.79007 35.2124 2.92995 34.3523 2.92995 33.295ZM25.1923 55.6881C28.9303 55.6881 32.0307 58.111 32.7666 61.3985H17.6183C18.3539 58.1109 21.4543 55.6881 25.1923 55.6881ZM42.2686 67.5485H8.11614V63.8499H16.2316H34.1532H42.2686V67.5485Z" fill="white"/>
<path d="M48.2506 26.0791C47.7721 25.6006 46.996 25.6005 46.5171 26.0793C46.0385 26.5579 46.0385 27.3341 46.5173 27.8127L48.7398 30.035C48.9791 30.2743 49.2928 30.394 49.6064 30.394C49.9201 30.394 50.2338 30.2742 50.4732 30.0348C50.9518 29.5562 50.9518 28.78 50.473 28.3014L48.2506 26.0791Z" fill="white"/>
<path d="M40.7144 28.8838C40.0375 28.8838 39.4886 29.4325 39.4886 30.1094L39.4883 33.2527C39.4883 33.9297 40.0369 34.4786 40.7139 34.4786H40.7141C41.3909 34.4786 41.9398 33.9299 41.9398 33.253L41.9402 30.1097C41.9402 29.4327 41.3916 28.8838 40.7146 28.8838H40.7144Z" fill="white"/>
<path d="M53.6908 19.0506L50.5477 19.0503H50.5475C49.8706 19.0503 49.3218 19.5991 49.3218 20.2759C49.3218 20.9529 49.8703 21.5019 50.5474 21.5019L53.6906 21.5022C53.6907 21.5022 53.6907 21.5022 53.6907 21.5022C54.3676 21.5022 54.9165 20.9535 54.9165 20.2766C54.9164 19.5996 54.3678 19.0506 53.6908 19.0506Z" fill="white"/>
</svg>
